X:1
T:Gamla rytmer
T:Knut Håkanson (1887-1929)
T:Text: Ola Hansson
T:Gamla rytmer
T:Op 8
%%score [ 1 2 3 ( 4 5 ) ]
L:1/8
Q:1/4=100
M:3/4
K:C
V:1 treble nm="S" snm="S"
V:2 treble nm="A" snm="A"
V:3 treble-8 nm="T" snm="T"
V:4 bass nm="B" snm="B"
V:5 bass 
V:1
!p!"^I stilla, mjuk, folkviseton" E | (3:2:2A2 B c3 B | (3:2:2A2 B c3 B | (3:2:2A2 B (cB) cd | %4
w: Lik-|som en bäck längs|vi- de- häck i-|ge- nom än- * gar- na|
 e2 e2 z e | (3:2:2f2 f d3 f | (3:2:2e2 d c3 A | (3:2:2e2 d (cB) A^G | A2 A2 z!mp! A | %9
w: rin- ner, en|dag drar bort, som|tyst och kort vid|li- vets syn- * rand för-|svin- ner. En|
!<(! (3:2:2c2 c!>(! A3!>)!!<(! c!<)!!<)! | (3:2:2d2 c!>(! A3!>)! !courtesy!=G | %11
w: ton den var, som|dröjt sig kvar in-|
 (3:2:2F2 G _A2 _BB | c2 c2 z!mf!!<(! c!<)! | (3:2:2_e2!>(! e!>)! c3!<(! e!<)! | %14
w: un- der tan- kar som|ver- ka, som|klin- gat klar i|
 (3:2:2f2!>(! _e c3!>)! c | (3:2:2_d2 c!>(! B2 GA | !tenuto!B2!>)! !tenuto!B2 z2 || %17
w: maj- blå dar från|rym- dens hän- gan- de|lär- ka.|
!p! !fermata![GB]16 |!pp! !fermata![^FB]24 | %19
w: ||
"^Sopran-solo" z2 z!mp! ^F"^ten." ^f>^d ^c3 B ^G>FF z z B | e3 B !courtesy!=c2 BA | B4 E3 z || %22
w: Den tänds i- gen på him- me- len som|min- nets strå- lan- de|stjär- na.|
[K:A][M:3/4]"^Tempo 1" z2 z2 z!p! E | (3:2:2A2 B c3 B | (3:2:2A2 B (c3 B) | (AG) AB cd/d/ | %26
w: Den|stån- dar klar och|un- der- bar, _|mid- * nat- tens en- sam- ma|
 e2 e2 z e | (3:2:2f2 f d3 f | (3:2:2e2 d!<(! c3!<)! A | !>!e3 z z2 | %30
w: stjär- na, som|sak- ta tar i|ljust för- var min|dröm|
 z!p! A"^rit." (c"^dim."B) AG | !tenuto!A2 !tenuto!A2 z2 |] %32
w: med flam- * man- de|kär- na.|
V:2
!p! E | (3:2:2E2 D C3 D | (3:2:2E2 D C3 D | (3:2:2E2 D C2 AA | A2 ^G2 z G | (3:2:2A2 A A3 A | %6
w: Lik-|som en bäck längs|vi- de- häck i-|ge- nom än- gar- na|rin- ner, en|dag drar bort, som|
 (3:2:2A2 A A3 E | (3:2:2A2 A F2 EE | E2 E2 z!mp! A |!<(! (3:2:2^G2 G!>(! A3!>)!!<(! A!<)!!<)! | %10
w: tyst och kort vid|li- vets syn- rand för-|svin- ner. En|ton den var, som|
 (3:2:2^G2!>(! G A3!>)! E | (3:2:2F2 F F2 FF | F2 E2 z!mf!!<(! _E!<)! | %13
w: dröjt sig kvar in-|un- der tan- kar som|ver- ka, som|
 (3:2:2_E2 E!>)!!>(! E3!<(! c!<)! | (3:2:2!courtesy!=B2!>(! B c3!>)! _A | (3:2:2_A2 A!>(! G2 EE | %16
w: klin- gat klar i|maj- blå dar från|rym- dens hän- gan- de|
 !tenuto!^F2!>)! !tenuto!F2 z2 ||"^con boca chiusa"!p! !fermata![B,E]16 |!pp! !fermata![B,D]24 | %19
w: lär- ka.|||
 z16 | z8 | z8 ||[K:A][M:3/4] z2 z2 z!p! E | (3:2:2E2 D C3 D | (3:2:2E2 D (C3 D) | (E=F) ED CA/A/ | %26
w: |||Den|stån- dar klar och|un- der- bar, _|mid- * nat- tens en- sam- ma|
 A2 G2 z G | (3:2:2A2 A A3 A | (3:2:2A2 A!<(! A3!<)! A | !>!A3 z z2 | z!p! F =F2 EE | %31
w: stjär- na, som|sak- ta tar i|ljust för- var min|dröm|med flam- man- de|
 !tenuto!E2 !tenuto!E2 z2 |] %32
w: kär- na.|
V:3
!p! E | (3:2:2E2 E E3 E | (3:2:2E2 E E3 E | (3:2:2E2 [E^G] [EA]2 AA | B2 B2 z B | (3:2:2d2 d f3 d | %6
w: Lik-|som en bäck längs|vi- de- häck i-|ge- nom än- gar- na|rin- ner, en|dag drar bort, som|
 (3:2:2e2 e e3 c | (3:2:2c2 d (AB) cd | d2 c2 z!mp!!<(! c!<)! | (3:2:2c2!>(! c c3!>)!!<(! c!<)! | %10
w: tyst och kort vid|li- vets syn- * rand för-|svin- ner. En|ton den var, som|
 (3:2:2c2!>(! c c3!>)! c | (3:2:2A2 G F2 GG | G2 G2 z!mf! c | %13
w: dröjt sig kvar in-|un- der tan- kar som|ver- ka, som|
!<(! (3:2:2!courtesy!=B2!>(! B!>)! c3!<(! c!<)!!<)! | (3:2:2_e2!>(! e e3!>)! e | %15
w: klin- gat klar i|maj- blå dar från|
 (3:2:2f2 _e!>(! !courtesy!=d2 =ee | !tenuto!e2!>)! !tenuto!^d2 z2 || z16 | z24 |!p! !fermata!B16 | %20
w: rym- dens hän- gan- de|lär- ka.||||
!<(! [^Ge]4!<)!!>(! [A^d]4!>)! |!>(! [^Ge]8!>)! ||[K:A][M:3/4] z2 z2 z!p! E | (3:2:2E2 E E3 E | %24
w: ||Den|stån- dar klar och|
 (3:2:2E2 E E4 | (AB) AG AA/A/ | B2 B2 z B | (3:2:2d2 d f3 d | (3:2:2e2 e!<(! e3!<)! A | %29
w: un- der- bar,|mid- * nat- tens en- sam- ma|stjär- na, som|sak- ta tar i|ljust för- var min|
 !>!A3 z z2 | z!p! A (AB) cd | !tenuto!d2 !tenuto!c2 z2 |] %32
w: dröm|med flam- * man- de|kär- na.|
V:4
!p! E, | (3:2:2C,2 B,, A,,3 B,, | (3:2:2C,2 B,, A,,3 B,, | (3:2:2C,2 B,, A,,2 F,F, | E,2 E,2 z E, | %5
w: Lik-|som en bäck längs|vi- de- häck i-|ge- nom än- gar- na|rin- ner, en|
 (3:2:2D,2 D, B,,3 D, | (3:2:2C,2 B,, (A,,2 A,)G, | (3:2:2F,2 F, D,2 E,E, | A,2 A,2 z!mp! F, | %9
w: dag drar bort, som|tyst och kort _ vid|li- vets syn- rand för-|svin- ner. En|
!<(! (3:2:2E,2 E,!>(! F,3!>)!!<(! F,!<)!!<)! | (3:2:2E,2!>(! E, F,3!>)! C, | %11
w: ton den var, som|dröjt sig kvar in-|
 (3:2:2D,2 D, _D,2 D,D, | C,2 C,2 z!mf!!<(! _A,!<)! | (3:2:2G,2!>(! G,!>)! _A,3!<(! A,!<)! | %14
w: un- der tan- kar som|ver- ka, som|klin- gat klar i|
 (3:2:2G,2!>(! G, _A,3!>)! A, | (3:2:2F,2 F,!>(! G,2 CC | !tenuto!B,2!>)! !tenuto!B,2 z2 || %17
w: maj- blå dar från|rym- dens hän- gan- de|lär- ka.|
"^Baryton-solo" z2 z!mp! G, ^F,>E, E,3 D, C,>B,,B,, z z2 | %18
w: Den slock- nar hän i skym- nin- gen.|
 z2 z ^F, B,2 F, z G,2 F,E, F,4 B,,3 z x4 |"^con boca chiusa"!p! !fermata![^D,^F,]16 | %20
w: Jag lyss- nar, län- ge och gär- na.||
!<(! [!courtesy!=D,E,]4!<)!!>(! [!courtesy!=C,E,]4!>)! |!>(! [B,,E,]8!>)! || %22
w: ||
[K:A][M:3/4] z2 z2 z E, | (3:2:2C,2 B,, A,,3 B,, | (3:2:2C,2 B,, (A,,3 B,,) | %25
w: Den|stån- dar klar och|un- der- bar, _|
 (C,D,) C,B,, A,,F,/F,/ | E,2 E,2 z E, | (3:2:2D,2 D, B,,3 D, | %28
w: mid- * nat- tens en- sam- ma|stjär- na, som|sak- ta tar i|
 (3:2:2C,2 B,,!<(! (A,,2 A,)!<)!=G, | !>!F,3 z z2 | z!p! F, D,2 E,E, | %31
w: ljust för- var _ min|dröm|med flam- man- de|
 !tenuto![A,,E,]2 !tenuto![A,,E,]2 z2 |] %32
w: kär- na.|
V:5
 x | x6 | x6 | x6 | x6 | x6 | x6 | x6 | x6 | x6 | x6 | x6 | x6 | x6 | x6 | x6 | x6 || x16 | x24 | %19
 x16 | x8 | B,,2 E,,6 ||[K:A][M:3/4] x6 | x6 | x6 | x6 | x6 | x6 | x6 | x6 | x6 | x6 |] %32

